X:1
T:E Major Oliver Holden, 1800
T:Isaac Watts, 1709 (Hymn 150, Book 1)    66. 66. 88.
T:Surety No copyright. Transcribed from Plain Psalmody, 1800.
%%score [ 1 2 3 ]
L:1/8
M:4/4
K:E
V:1 treble nm="Treble" snm="Tr."
V:2 treble-8 nm="Tenor" snm="T."
V:3 bass nm="Bass" snm="B."
V:1
 (B2 cd) | e6 c2 | (B2 A2) (G2 F2) | G6 c2 | (c2 A2) (G2 B2) | (B2 A2) (G2 F2) | E6 F2 | %7
 (G2 e2) d4 | c6 G2 | A6 GF | (G2 e2) d4 | c4 ^B4 | c6 B2 | (B2 G2 B2) e2 | B6 B2 | (c2 A2 c2) f2 | %16
 d6 B2 | (A2 G2 A2) B2 | (G2 A2 B2) f2 | e4 d4 | e8 |] %21
V:2
 G4 | B6 c2 | (e2 d2) (e2 f2) | e6 e2 | e4 e4 | d4 d4 | e6 B2 | (e2 c2) ^B4 | (c4 e2) c2 | c6 e2 | %10
w: 1.~To|this dear|Sure- * ty's *|hand will|I com-|mit my|cause; He|ans- * wers|and * ful-|fills His|
 B4 G4 | e4 d4 | c6 G2 | (G2 B2 e2) B2 | (G2 B2 e2) B2 | e6 dc | B6 G2 | B6 d2 | (B2 A2 G2) c2 | %19
w: Fath- er's|bro- ken|laws; Be-|hold * * my|soul * * at|free- dom *|set! My|Sure- ty|paid * * the|
 B4 A4 | G8 |] %21
w: dread- ful|debt.|
V:3
 E,4 | E,6 A,2 | (G,2 F,2) (E,2 D,2) | E,6 E,2 | A,4 E,4 | B,4 B,,4 | E,6 D,2 | C,4 G,4 | C,6 E,2 | %9
 F,6 E,F, | G,4 G,4 | G,4 G,,4 | C,6 E,2 | E,6 E,2 | E,6 A,2 | A,6 F,2 | B,6 E,2 | %17
 (F,2 E,2 F,2) D,2 | (E,2 F,2 G,2) A,2 | B,4 B,,4 | E,8 |] %21

